icons/svg/skimap/arrow_2triangles_black_small.svg

<?xml version="1.0" encoding="UTF-8" standalone="no"?>
<svg
   xmlns:dc="http://purl.org/dc/elements/1.1/"
   xmlns:cc="http://creativecommons.org/ns#"
   xmlns:rdf="http://www.w3.org/1999/02/22-rdf-syntax-ns#"
   xmlns:svg="http://www.w3.org/2000/svg"
   xmlns="http://www.w3.org/2000/svg"
   xmlns:sodipodi="http://sodipodi.sourceforge.net/DTD/sodipodi-0.dtd"
   xmlns:inkscape="http://www.inkscape.org/namespaces/inkscape"
   width="1060"
   height="1060"
   id="svg2"
   version="1.1"
   inkscape:version="0.48.4 r9939"
   sodipodi:docname="arrow_2triangles_black_big_nobg.svg">
  <defs
     id="defs13" />
  <sodipodi:namedview
     pagecolor="#ffffff"
     bordercolor="#666666"
     borderopacity="1"
     objecttolerance="10"
     gridtolerance="10"
     guidetolerance="10"
     inkscape:pageopacity="0"
     inkscape:pageshadow="2"
     inkscape:window-width="1324"
     inkscape:window-height="739"
     id="namedview11"
     showgrid="false"
     inkscape:zoom="0.40689654"
     inkscape:cx="377.62601"
     inkscape:cy="491.78754"
     inkscape:window-x="42"
     inkscape:window-y="1024"
     inkscape:window-maximized="1"
     inkscape:current-layer="svg2">
    <inkscape:grid
       type="xygrid"
       id="grid3751"
       empspacing="5"
       visible="true"
       enabled="true"
       snapvisiblegridlinesonly="true" />
  </sodipodi:namedview>
  <metadata
     id="metadata2975">image/svg+xmlen<rdf:RDF>
  <cc:Work
     rdf:about="">
    <dc:format>image/svg+xml</dc:format>
    <dc:type
       rdf:resource="http://purl.org/dc/dcmitype/StillImage" />
    <dc:title></dc:title>
  </cc:Work>
</rdf:RDF>
</metadata>
  <path
     style="color:#000000;fill:#fefefe;fill-opacity:1;fill-rule:nonzero;stroke:none;stroke-width:30.54599953;marker:none;visibility:visible;display:inline;overflow:visible;enable-background:accumulate"
     d="m 529.95894,200.67445 97.84057,270.346 -195.59902,0 z"
     id="rect2989-5"
     inkscape:connector-curvature="0"
     sodipodi:nodetypes="cccc" />
  <path
     style="color:#000000;fill:#000000;fill-opacity:1;fill-rule:nonzero;stroke:none;stroke-width:30.54599953;marker:none;visibility:visible;display:inline;overflow:visible;enable-background:accumulate"
     d="m 529.96856,247.21096 74.91847,207.0093 -149.77406,0 z"
     id="rect2989"
     inkscape:connector-curvature="0"
     sodipodi:nodetypes="cccc" />
  <path
     style="color:#000000;fill:#fefefe;fill-opacity:1;fill-rule:nonzero;stroke:none;stroke-width:30.54599953;marker:none;visibility:visible;display:inline;overflow:visible;enable-background:accumulate"
     d="m 529.95894,859.32555 97.84057,-270.346 -195.59902,0 z"
     id="rect2989-5-8"
     inkscape:connector-curvature="0"
     sodipodi:nodetypes="cccc" />
  <path
     style="color:#000000;fill:#000000;fill-opacity:1;fill-rule:nonzero;stroke:none;stroke-width:30.54599953;marker:none;visibility:visible;display:inline;overflow:visible;enable-background:accumulate"
     d="m 529.96856,812.78904 74.91847,-207.0093 -149.77406,0 z"
     id="rect2989-54"
     inkscape:connector-curvature="0"
     sodipodi:nodetypes="cccc" />
</svg>

<svg width="1060" height="1060" viewBox="0 0 1060 1060" fill="none" xmlns="http://www.w3.org/2000/svg">
<path d="M529.959 200.674L627.8 471.02H432.201L529.959 200.674Z" fill="#FEFEFE"/>
<path d="M529.968 247.211L604.887 454.22H455.113L529.968 247.211Z" fill="black"/>
<path d="M529.959 859.326L627.8 588.98H432.201L529.959 859.326Z" fill="#FEFEFE"/>
<path d="M529.968 812.789L604.887 605.78H455.113L529.968 812.789Z" fill="black"/>
</svg>
